X: 29961
T: Oakwood, The
R: reel
M: 4/4
K: Eminor
E2 GA B2 AG|F2 GE F2 F2|d2 AG F2 D2|B2 AG F2 G2|
[1 E2 GA B2 AG|FDBA F2 F2|d2 AG F2 DF|BAFD E2 GF:|
[2 E2 GA BcAG|FdAB E2 F2|B2 cd A2 Fd|ABGF E4||
|:e2 Be g2 fe|d2 B^c d2 d2|AGFA d2 ef|g2 e2 f2 d2|
[1 e2 Be g2 fe|d2 Be d2 d2|gafe d2 A2|DBAF G4:|
[2 e2 gf g2 ag|f2 de f2 f2|dABG F2 DF|BcAF E4||

